X: 3
T:Denis Murphy's Polka
R:polka
S:John B. 
M:2/4
L:1/16
K:D
|:fgfe d3B|A2D2 F2A2|G2E2 e3d|c2B2 B2A2|
fgfe d3B|A2D2 F2A2|G2E2 e3f|e2d2 d3:|
|:B|A2f2 fef2|A2g2 gfg2|A2f2 fef2|efed B2A2|
A2f2 fef2|A2g2 g3a|b2a2 g2c2|e2d2 d3:|
